src/topics/icons/zube.svg

<svg height="178" preserveAspectRatio="xMidYMid" viewBox="0 0 256 178" width="256" xmlns="http://www.w3.org/2000/svg"><path d="m.00000005 63.22837 119.83344795 63.229382v50.743944l-119.83344795-63.230551zm119.83390395-63.22837-110.83944924 58.4829443 48.08557364 25.3719033 62.7538756-33.1110407zm16.333547 0v50.7438069l71.746927 37.8567215-71.746927 37.8567226v50.743805l119.832549-63.229549v-50.7431407z" fill="#0d83dd"/></svg>

<?xml version="1.0" encoding="UTF-8" standalone="no"?>
<svg width="256px" height="178px" viewBox="0 0 256 178" version="1.1" xmlns="http://www.w3.org/2000/svg" xmlns:xlink="http://www.w3.org/1999/xlink" preserveAspectRatio="xMidYMid">
    <g>
        <path d="M5.10597431e-08,63.22837 L119.833448,126.457752 L119.833448,177.201696 L5.10597431e-08,113.971145 L5.10597431e-08,63.22837 Z M119.833904,1.42108547e-14 L8.99445476,58.4829443 L57.0800284,83.8548476 L119.833904,50.7438069 L119.833904,1.42108547e-14 Z M136.167451,0 L136.167451,50.7438069 L207.914378,88.6005284 L136.167451,126.457251 L136.167451,177.201056 L256,113.971507 L256,63.2283663 L136.167451,0 Z" fill="#0D83DD"></path>
    </g>
</svg>
